X: 10
T: Tianhe shuige liangtou qi
%%abc-version 2.0
%%abcx-abcm2ps-target-version 5.9.1 (29 Sep 2008)
%%abc-creator hum2abc beta
%%abcx-conversion-date 2013/10/02 07:52:29
%%abc-edited-by Helmut Schaffrath
%%humdrum-veritas 3940893035
%%humdrum-veritas-data 361893468
%%continueall 1
%%barnumbers 0
L: 1/8
M: 2/4
K: D
e> ee2 [I:setbarnb 1]| 
B B/ d/A2 | 
e a A A/ F/ | 
E4 | 
e> ee2 | 
B d e e | 
e a d e | 
BA3 |]  



